logos/todomvc.svg

<svg preserveAspectRatio="xMidYMid" viewBox="0 0 256 230" xmlns="http://www.w3.org/2000/svg">
  <path fill="#383838" d="M34.404 15.29h23.547V0H34.404a34.316 34.316 0 0 0-18.363 5.306l8.17 12.925a19.042 19.042 0 0 1 10.193-2.941ZM15.29 34.404c0-2.794.587-5.482 1.744-7.991L3.148 20.012A34.123 34.123 0 0 0 0 34.404v27.064h15.29V34.404ZM0 76.911h15.29v38.532H0V76.911Zm205.901-58.194a330.876 330.876 0 0 1 13.753-8.257 34.65 34.65 0 0 0-8.941-6.645A34.508 34.508 0 0 0 194.954 0h-13.532v15.29h13.532c4.006 0 7.788 1.211 10.947 3.427ZM0 130.887h15.29v38.609H0v-38.609ZM73.395 0h38.532v15.291H73.395V0Zm53.975 0h38.609v15.291H127.37V0Zm17.049 214.067h38.532v15.291h-38.532v-15.291ZM214.068 86.85h15.291v38.609h-15.291V86.85Zm0 54.052h15.291v38.532h-15.291v-38.532ZM15.29 194.954v-10.015H0v10.015a34.436 34.436 0 0 0 17.783 30.129l7.395-13.384a19.14 19.14 0 0 1-9.888-16.745ZM214.068 61.267v10.14h15.29V48.698c-5.026 3.742-10.128 7.936-15.29 12.569Zm0 133.687c0 9.585-7.153 17.734-16.639 18.956l1.952 15.165a34.373 34.373 0 0 0 21.331-11.313 34.365 34.365 0 0 0 8.646-22.808v-.076h-15.29v.076ZM36.315 214.067h38.609v15.291H36.315v-15.291Zm54.052 0h38.609v15.291H90.367v-15.291Z"/>
  <path fill="#AF2F2F" d="m35.015 121.738 71.72 71.72S178.455 55.479 256 24.534L253.088 2.69C210.857 19.437 146.782 63.489 99.454 130.839l-49.876-29.488-14.563 20.387"/>
</svg>

<?xml version="1.0" encoding="UTF-8" standalone="no"?>
<svg width="256px" height="230px" viewBox="0 0 256 230" version="1.1" xmlns="http://www.w3.org/2000/svg" xmlns:xlink="http://www.w3.org/1999/xlink" preserveAspectRatio="xMidYMid">
	<g>
		<path d="M34.404,15.29 L57.951,15.29 L57.951,0 L34.404,0 C27.882,0 21.533,1.835 16.041,5.306 L24.211,18.231 C27.254,16.307 30.779,15.29 34.404,15.29 L34.404,15.29 Z M15.29,34.404 C15.29,31.61 15.877,28.922 17.034,26.413 L3.148,20.012 C1.059,24.542 0,29.384 0,34.404 L0,61.468 L15.29,61.468 L15.29,34.404 L15.29,34.404 Z M0,76.911 L15.29,76.911 L15.29,115.443 L0,115.443 L0,76.911 Z M205.901,18.717 C210.511,15.798 215.105,13.04 219.654,10.46 C217.054,7.782 214.021,5.522 210.713,3.815 C205.876,1.319 200.427,0 194.954,0 L181.422,0 L181.422,15.29 L194.954,15.29 C198.96,15.29 202.742,16.501 205.901,18.717 L205.901,18.717 Z M0,130.887 L15.29,130.887 L15.29,169.496 L0,169.496 L0,130.887 Z M73.395,0 L111.927,0 L111.927,15.291 L73.395,15.291 L73.395,0 Z M127.37,0 L165.979,0 L165.979,15.291 L127.37,15.291 L127.37,0 Z M144.419,214.067 L182.951,214.067 L182.951,229.358 L144.419,229.358 L144.419,214.067 Z M214.068,86.85 L229.359,86.85 L229.359,125.459 L214.068,125.459 L214.068,86.85 Z M214.068,140.902 L229.359,140.902 L229.359,179.434 L214.068,179.434 L214.068,140.902 Z M15.29,194.954 L15.29,184.939 L0,184.939 L0,194.954 C0,207.477 6.814,219.021 17.783,225.083 L25.178,211.699 C19.079,208.329 15.29,201.913 15.29,194.954 L15.29,194.954 Z M214.068,61.267 L214.068,71.407 L229.358,71.407 L229.358,48.698 C224.332,52.44 219.23,56.634 214.068,61.267 L214.068,61.267 Z M214.068,194.954 C214.068,204.539 206.915,212.688 197.429,213.91 L199.381,229.075 C207.612,228.015 215.187,223.997 220.712,217.762 C226.287,211.469 229.358,203.369 229.358,194.954 L229.358,194.878 L214.068,194.878 L214.068,194.954 L214.068,194.954 Z M36.315,214.067 L74.924,214.067 L74.924,229.358 L36.315,229.358 L36.315,214.067 Z M90.367,214.067 L128.976,214.067 L128.976,229.358 L90.367,229.358 L90.367,214.067 Z" fill="#383838"></path>
		<path d="M35.015,121.738 L106.735,193.458 C106.735,193.458 178.455,55.479 256,24.534 L253.088,2.69 C210.857,19.437 146.782,63.489 99.454,130.839 L49.578,101.351 L35.015,121.738" fill="#AF2F2F"></path>
	</g>
</svg>
